src/icons/solid/symbols/more-vertical.svg

<svg width="24" height="24" viewBox="0 0 24 24" fill="none" xmlns="http://www.w3.org/2000/svg">
<g clip-path="url(#clip0_4383_521)">
<path d="M12.007 21C11.4963 21 11.0591 20.8182 10.6954 20.4545C10.3317 20.0908 10.1499 19.6536 10.1499 19.1429C10.1499 18.6322 10.3317 18.195 10.6954 17.8313C11.0591 17.4676 11.4963 17.2858 12.007 17.2858C12.5177 17.2858 12.9549 17.4676 13.3186 17.8313C13.6823 18.195 13.8642 18.6322 13.8642 19.1429C13.8642 19.6536 13.6823 20.0908 13.3186 20.4545C12.9549 20.8182 12.5177 21 12.007 21ZM12.007 13.8571C11.4963 13.8571 11.0591 13.6753 10.6954 13.3116C10.3317 12.9479 10.1499 12.5107 10.1499 12C10.1499 11.4893 10.3317 11.0521 10.6954 10.6884C11.0591 10.3247 11.4963 10.1429 12.007 10.1429C12.5177 10.1429 12.9549 10.3247 13.3186 10.6884C13.6823 11.0521 13.8642 11.4893 13.8642 12C13.8642 12.5107 13.6823 12.9479 13.3186 13.3116C12.9549 13.6753 12.5177 13.8571 12.007 13.8571ZM12.007 6.71422C11.4963 6.71422 11.0591 6.53237 10.6954 6.16868C10.3317 5.80501 10.1499 5.36781 10.1499 4.8571C10.1499 4.3464 10.3317 3.9092 10.6954 3.54551C11.0591 3.18184 11.4963 3 12.007 3C12.5177 3 12.9549 3.18184 13.3186 3.54551C13.6823 3.9092 13.8642 4.3464 13.8642 4.8571C13.8642 5.36781 13.6823 5.80501 13.3186 6.16868C12.9549 6.53237 12.5177 6.71422 12.007 6.71422Z" fill="#3C3B44"/>
</g>
<defs>
<clipPath id="clip0_4383_521">
<rect width="24" height="24" fill="white"/>
</clipPath>
</defs>
</svg>

<svg xmlns="http://www.w3.org/2000/svg" width="24" height="24" fill="none" viewBox="0 0 24 24"><g clip-path="url(#a)"><path fill="currentColor" d="M12.007 21q-.765 0-1.312-.546a1.8 1.8 0 0 1-.545-1.311q0-.766.545-1.312.546-.545 1.312-.545t1.312.545.545 1.312-.545 1.311-1.312.546m0-7.143q-.765 0-1.312-.545A1.8 1.8 0 0 1 10.15 12q0-.766.545-1.312.546-.545 1.312-.545t1.312.545.545 1.312-.545 1.312q-.546.545-1.312.545m0-7.143q-.765 0-1.312-.545a1.8 1.8 0 0 1-.545-1.312q0-.766.545-1.311Q11.241 3 12.007 3t1.312.546q.545.544.545 1.311 0 .765-.545 1.312-.546.545-1.312.545"/></g><defs><clipPath id="a"><path fill="currentColor" d="M0 0h24v24H0z"/></clipPath></defs></svg>
